X:1
T:Farewell to the Highlands
T:Farewell to the Highlands
T:Lyrics: Robert Burns (1759 - 1796) tune: in Scots Musical Museum, 1740 arr.: Joachim Kelecom
C:Lyrics: Robert Burns (1759 - 1796)
C:tune: in Scots Musical Museum, 1740
C:arr.: Joachim Kelecom
%%score [ 1 2 3 ] { 4 | 5 }
L:1/8
Q:1/4=100
M:none
K:Bb
V:1 treble nm="MusicXML Part"
V:2 treble nm="Soprano 2"
V:3 treble nm="Alto"
V:4 treble nm="Harp"
V:5 bass 
V:1
 F2 | B2 (B>d) (c>B) | G2 G2 B2 | F3 B (G>F) | (D3 C) B,2 | C2 D2 B2 |{G} F3 E (DC) | %7
w: My|heart's in _ the _|High- lands, my|heart is not _|here, _ My|heart's in the|High- lands a- *|
 B,2 B2 (B>c) | B4 (B>c) | (d>c) (de) (dc) | B3 A G2 | F3 B GF |{E} (D3 C) B,2 | C2 D2 B2 | %14
w: chas- ing the _|deer; A- *|chas- * ing _ the _|wild deer and|fol- low- ing the|roe, _ my|heart's in the|
 (F>G) (D>F) (C>D) | B,2 B2 (B>c) | B4 || F2 | (Bc) d2 (de/f/) | d3 c d2 | G2 F2 G2 | (g3 f) d2 | %22
w: High- * lands, _ wher- *|ev- er I _|go.|Fare-|well _ to the _ _|High- lands, fare-|well to the|North, _ the|
 (fg) (fe) (dc) | (de) (dc) (BA) | G2 c2 e2 | (c3 B) G2 | (BA) (Bc) (de) |{de} f3 g f2 | %28
w: birth- * place _ of _|val- * our, _ the _|coun- try of|worth; _ Wher-|ev- * er _ I- _|wan- der, wher-|
 (gf) (ed) (cB) | (B3 d) (cB) | G3 F (GB) | (F>G) (D>E) (C>D) | B,2 B2 (B>c) | B4 |] f2 | %35
w: ev- * er _ I _|rove, _ The _|hills of the _|High- * lands _ for- *|ev- er I _|love.|My|
 d2 (d>f) (g>f) | e2 e2 g2 | (fe) (dc) (BA) | (Bc de) f2 | (fe) (dc) (Bd) | (cd) (eg) (fe) | %41
w: heart's in _ the _|High- lands, my|heart _ is _ not _|here, _ _ _ My|heart's _ in _ the _|High- * lands _ a- *|
 (dc) B2 (d>e) | d4 (d>e) | (fg) (ag) (fe) | d3 c B2 | (de) (fg) (ed) | (fe de) (fd) | c2 B2 d2 | %48
w: chas- * ing the _|deer; A- *|chas- * ing _ the _|wild deer and|fol- low- ing _ the _|roe, _ _ _ my _|heart's in the|
 d2 B2 F2 | B2 d2 e2 | d4 |: F2 | f2 f2 f2 | f3 e d2 | e2 e2 e2 | (e3 d) (ef) | (de) (dc) (BA) | %57
w: High- lands, wher-|ev- er I|go.|Fare-|well to the|moun- tains, high|cov- er'd with|snow, _ fare- *|well _ to _ the _|
 (Bc) (BA) (GF) | B2 e2 g2 | (f2 f2) e2 | d2 d2 f2 | d3 e d2 | (ed) (cB) (AG) | (Bc de) f2 | %64
w: straths _ and _ green _|val- leys be-|low, _ Fare-|well to the|for- ests and|wild- * hang- * ing _|woods, _ _ _ fare-|
 e2 d2 e2 | f2 f2 e2 | d2 d2 c2 | B4 :| %68
w: well to the|tor- rents and|loud- poor- ing|floods.|
V:2
 z2 | z6 | z6 | z6 | z6 | z6 | z6 | z6 | z6 | z6 | z6 | z6 | z6 | z6 | z6 | z6 | z4 || z2 | z6 | %19
w: |||||||||||||||||||
 z6 | z6 | z6 | z6 | z6 | z6 | z6 | z6 | z6 | z6 | z6 | z6 | z6 | z6 | z4 |] F2 | B2 (B>d) (c>B) | %36
w: |||||||||||||||My|heart's in _ the _|
 G2 G2 B2 | F3 B (G>F) | (D3 C) B,2 | C2 D2 B2 |{G} F3 E (DC) | B,2 B2 (B>c) | B4 (B>c) | %43
w: High- lands, my|heart is not _|here, _ My|heart's in the|High- lands a- *|chas- ing the _|deer; A- *|
 (d>c) (de) (dc) | B3 A G2 | F3 B GF |{E} (D3 C) B,2 | C2 D2 B2 | (F>G) (D>F) (C>D) | %49
w: chas- * ing _ the _|wild deer and|fol- low- ing the|roe, _ my|heart's in the|High- * lands, _ wher- *|
 B,2 B2 (B>c) | B4 |: F2 | (Bc) d2 (de/f/) | d3 c d2 | G2 F2 G2 | (g3 f) d2 | (fg) (fe) (dc) | %57
w: ev- er I _|go.|Fare-|well _ to the _ _|moun- tains, high|cov- er'd with|snow, _ fare-|well _ to _ the _|
 (de) (dc) (BA) | G2 c2 e2 | (c3 B) G2 | (BA) (Bc) (de) |{de} f3 g f2 | (gf) (ed) (cB) | %63
w: straths _ and _ green _|val- leys be-|low, _ Fare-|well _ to _ the _|for- ests and|wild- * hang- * ing _|
 (B3 d) (cB) | (G3 F) GB | (F>G) (D>E) (C>D) | B,2 B2 (B>c) | B4 :| %68
w: woods, _ fare- *|well _ to the|tor- * rents _ and _|loud- poor- ing _|floods.|
V:3
 z2 | z6 | z6 | z6 | z6 | z6 | z6 | z6 | z6 | z6 | z6 | z6 | z6 | z6 | z6 | z6 | z4 || z2 | z6 | %19
w: |||||||||||||||||||
 z6 | z6 | z6 | z6 | z6 | z6 | z6 | z6 | z6 | z6 | z6 | z6 | z6 | z6 | z4 |] z2 | z6 | z6 | z6 | %38
w: |||||||||||||||||||
 z6 | z6 | z6 | z6 | z6 | z6 | z6 | z6 | z6 | z6 | z6 | z6 | z4 |: F2 | F2 B2 B2 | B3 A B2 | %54
w: |||||||||||||Fare-|well to the|moun- tains, high|
 G2 F2 E2 | (EF) (GA) B2 | B2 B2 A2 | G2 G2 F2 | E2 E2 G2 | (A3 G) (FE) | (DC) (DE) (FG) | %61
w: cov- er'd with|snow, _ _ _ fare-|well to the|straths and green|val- leys be-|low, _ Fare- *|well _ to _ the _|
 B2 B2 B2 | (BA) (GF) (ED) | (D3 F) (ED) | (E3 D) EG | (FE) (DC) (B,A,) | B,2 D2 F2 | F4 :| %68
w: for- ests and|wild- * hang- * ing _|woods, _ fare- *|well _ to the|tor- * rents _ and _|loud- poor- ing|floods.|
V:4
 z2 | x6 | x6 | x6 | x6 | x6 | x6 | x6 | x6 | x6 | x6 | x6 | x6 | x6 | x6 | x6 | x4 || z2 | x6 | %19
 x6 | x6 | z6 | x6 | x6 | x6 | x6 | x6 | x6 | x6 | x6 | x6 | z6 | x6 | z4 |] z2 | x6 | x6 | x6 | %38
 x6 | x6 | x6 | x6 | x6 | x6 | x6 | x6 | x6 | x6 | x6 | x6 | x4 |: z2 | [DFB]6 | [DFB]6 | [GBe]6 | %55
 [GBe]4 [FBd]2 | [FBd]4 [FAc]2 | [DGB]4 [FAd]2 | [GBe]6 | [Fce]6 | [FBd]6 | [FBd]6 | %62
 [GBe]4 [Acf]2 | [FBdf]6 | [GBe]6 | [FBd]2 [FBd]2 [Fce]2 | [FBd]2 [FBd]2 [Acf]2 | [Bdf]4 :| %68
V:5
 z2 | B,,D, F,[I:staff -1]B, DF |[I:staff +1] E,G,[I:staff -1] B,E GB | %3
[I:staff +1] B,,D, F,[I:staff -1]B, EG | FA, CE B,D |[I:staff +1] A,,C, B,,D, F,[I:staff -1]B, | %6
[I:staff +1] F,,A,, C,F,[I:staff -1] A,C |[I:staff +1] B,,D, E,G,[I:staff -1] B,E | %8
[I:staff +1] B,,D, F,[I:staff -1]B, DF |[I:staff +1] B,,D, F,G, D,D,, | %10
 G,,B,, D,G,[I:staff -1] B,D |[I:staff +1] B,,D, F,[I:staff -1]B,[I:staff +1] F,[I:staff -1]A, | %12
 B,[I:staff +1]B,, D,F,[I:staff -1] B,D |[I:staff +1] F,[I:staff -1]B, DF BF | %14
 DF B,D A,[I:staff +1]F, |[I:staff -1] B,[I:staff +1]F, D,B,, E,G, | %16
[I:staff -1] B,[I:staff +1]F, D,B,, || F,F,, | B,,D, F,[I:staff -1]B, DF | %19
[I:staff +1] D,A,[I:staff -1] D^F Ad |[I:staff +1] D,G,[I:staff -1] B,D GB | %21
[I:staff +1] E,G, D,=F, B,,D, | A,,C, F,A, B,A, | B,F, D,B,, F,,F, | E,G,[I:staff -1] B,E GB | %25
[I:staff +1] F,[I:staff -1]A, CF Ac |[I:staff +1] B,,D, F,[I:staff -1]B,[I:staff +1] E,G, | %27
 B,,D, F,[I:staff -1]B, DF |[I:staff +1] E,G,[I:staff -1] B,E GB | %29
[I:staff +1] D,F,[I:staff -1] B,D FB |[I:staff +1] C,E, G,[I:staff -1]C EG | %31
[I:staff +1] D,F, B,,D, A,,C, | B,,D, F,[I:staff -1]B,[I:staff +1] E,G, | !arpeggio![B,,D,F,B,]4 |] %34
 z2 | B,,D, F,[I:staff -1]B, DF |[I:staff +1] E,G,[I:staff -1] B,E GB | %37
[I:staff +1] B,,D, F,[I:staff -1]B, EG | FA, CE B,D |[I:staff +1] A,,C, B,,D, F,[I:staff -1]B, | %40
[I:staff +1] F,,A,, C,F,[I:staff -1] A,C |[I:staff +1] B,,D, E,G,[I:staff -1] B,E | %42
[I:staff +1] B,,D, F,[I:staff -1]B, DF |[I:staff +1] B,,D, F,G, D,D,, | %44
 G,,B,, D,G,[I:staff -1] B,D |[I:staff +1] B,,D, F,[I:staff -1]B,[I:staff +1] F,[I:staff -1]A, | %46
 B,[I:staff +1]B,, D,F,[I:staff -1] B,D |[I:staff +1] F,[I:staff -1]B, DF BF | %48
 DF B,D A,[I:staff +1]F, |[I:staff -1] B,[I:staff +1]F, D,B,, E,G, | %50
[I:staff -1] B,[I:staff +1]F, D,B,, |: z2 | [B,,,B,,]6 | [B,,,B,,]6 | [E,,E,]6 | [E,,E,]4 B,,2 | %56
 [B,,,B,,]4 F,,2 | [G,,,G,,]4 [D,,D,]2 | [E,,E,]6 | [F,,F,]6 | [B,,,B,,]6 | [B,,,B,,]6 | %62
 [E,,E,]4 [F,,F,]2 | [B,,,B,,]6 | [E,,E,]6 | [B,,,B,,]2 [B,,,B,,]2 [F,,,F,,]2 | %66
 [B,,,B,,]2 [B,,,B,,]2 [F,,,F,,]2 | [B,,,B,,]4 :| %68

